!!!COM: Robert Schumann
!!!CNT: Deutsch
!!!TXO: Deutsch
!!!OTL: "Der schwere Abend"
!!!LYR: Lenau
!!!OPR: Sechs Gedichte von N. Lenau und Requiem
!!!OPS: Op. 90
!!!ONM: No. 6
!!!ENC: Leigh VanHandel
!!!YOR: Schumann Lieder - Max Friedlaender, ed.,
!!!YOR: New York: C. F. Peters, Vol. 3
!!!ODT: 1850/
**kern	**silbe
*staff1	*
*clefG2	*
*k[b-e-a-d-g-c-]	*
*M3/4	*
*MM[104]	*
=1	=1
2.r	.
=2	=2
4.r	.
{4.b-	{Die
=3	=3
4.ee-	dunk-
4.b-	-len
=4	=4
4.a-	Wol-
4.g-	-ken
=5	=5
4.f	hin-
4.g-}	-gen}
=6	=6
4.r	.
{4.b-	{her-
=7	=7
4.gg-	-ab
8ff	so
8ee-	bang
8dd-	und
=8	=8
2cc-}	schwer,}
4r	.
=9	=9
4r	.
4r	.
{4an	{wir
=10	=10
2b-	bei-
4b-	-de
=11	=11
2a-	trau-
8dd-	-rig
8cc-	|
=12	=21
2b-	gin-
4a-}	-gen}
=13	=13
4r	.
4r	.
{4g-	{im
=14	=14
2f-	Gar-
8b-	-ten
8a-	|
=15	=15
2e-	hin
4e-	und
=16	=16
2e-}	her.}
4r	.
=17	=17
2.r	.
=18	=18
2.r	.
=19	=19
2.r	.
=20	=20
2.r	.
=21	=21
2.r	.
=22	=22
4.r	.
{4.b-	{So
=23	=23
4.ee-	heiss
4.b-	und
=24	=24
4.a-	stumm,
4.g-	so
=25	=25
4.f	tru2-
4.g-}	-be}
=26	=26
4.r	.
{4.b-	{und
=27	=27
4.gg-	ster-
8ff	-los
8ee-	war
8dd-	die
=28	=28
2cc-}	Nacht,}
4r	.
=29	=29
4r	.
4r	.
{4an	{sp
=30	=30
2b-	ganz
4b-	wie
=31	=31
2a-	uns-
8dd-	-re
8cc-	|
=32	=32
2b-	Lie-
4a-}	-be}
=33	=33
4r	.
4r	.
{4g-	{zu
=34	=34
2f-	Tra2-
8b-	-nen
8a-	|
=35	=35
2e-	nur
4e-	ge-
=36	=36
2e-}	-macht.}
4r	.
=37	=37
2.r	.
=38	=38
2.r	.
=39	=39
2.r	.
=40	=40
2.r	.
=41	=41
2.r	.
=42	=42
2.r	.
=43	=43
2.r	.
=44	=44
4r	.
4r	.
{4dd-	{Und
=45	=45
2dd-	als
4b-	ich
=46	=46
2a-	muss-
4g-	-te
=47	=47
2.b-	schei-
=48	=48
2a-}	-den,}
4r	.
=49	=49
4r	.
4r	.
{4a-	{und
=50	=50
2cc-	gu-
4b-	-te
=51	=51
2b-	Nacht
4b-	dir
=52	=52
2.b-}	bot,}
=53	=53
{2.a-	{wu2nscht'
=54	=54
2g-	ich
4g-	be-
=55	=55
2cc-	-ku2m-
4cc-	-mert
=56	=56
2cc-	bei-
4b-}	-den}
=57	=57
4r	.
4r	.
{4f	{im
=58	=58
4.a-	Her-
8a-	-zen
8g-	uns
8f	den
=59	=59
2.e-}	Tod.}
==	==
*-	*-
